!!!OTL: 7. Justi tulerunt spolia
!!!OMV: Partie 1
**kern	**text	**kern	**text
*part2	*part2	*part1	*part1
*staff2	*staff2	*staff1	*staff1
*I"Voice 2	*	*I"Voice 1	*
*clefF4	*	*clefC3	*
*k[b-]	*	*k[b-]	*
*F:	*	*F:	*
*M2/1	*	*M2/1	*
=1	=1	=1	=1
0r	.	1.f	Ju-
.	.	4e	.
.	.	4d	.
=2	=2	=2	=2
1.F	Ju-	1c	.
.	.	1d	-sti
4E	.	.	.
4D	.	.	.
=3	=3	=3	=3
1C	.	2r	.
.	.	2e	tu-
1D	-sti	2f	-le-
.	.	2d	-runt
=4	=4	=4	=4
2r	.	2.c	spo-
2A	tu-	.	.
.	.	4c	-li-
2B-	-le-	1d	-a
2G	-runt	.	.
=5	=5	=5	=5
2.F	spo-	2r	.
.	.	1f	im-
4F	-li-	.	.
1G	-a	.	.
.	.	2e	-pi-
=6	=6	=6	=6
2r	.	1d	-o-
1B-	im-	.	.
.	.	1c	-rum,
2A	-pi-	.	.
=7	=7	=7	=7
1G	-o-	2r	.
.	.	1e-X	im-
1F	-rum,	.	.
.	.	2d	-pi-
=8	=8	=8	=8
2r	.	1c	-o-
1E-X	im-	.	.
.	.	1B-	-rum,
2D	-pi-	.	.
=9	=9	=9	=9
1C	-o-	2r	.
.	.	2c	et
1BB-	rum,	4d	can-
.	.	4c	.
.	.	4B-	.
.	.	4A	.
=10	=10	=10	=10
2r	.	2G	.
2D	et	2F	-ta-
4C	can-	2.G	-ve-
4D	.	.	.
4E	.	.	.
4F	.	4A	.
=11	=11	=11	=11
2G	.	2B-	.
2A	-ta-	2c	-runt,
2.G	-va-	2r	.
.	.	[2g	Do-
4F	.	.	.
=12	=12	=12	=12
2E	.	2g]	.
2D	-runt,	2f	-mi-
2r	.	[1e	-ne,
[2A	Do-	.	.
=13	=13	=13	=13
2A]	.	1e]	.
2G	-mi-	.	.
1F	-ne,	2r	.
.	.	[2A	no-
=14	=14	=14	=14
1D	no-	2A]	.
.	.	2B#X	-men
2E	-men	1c	san-
[2F	san-	.	.
=15	=15	=15	=15
4F]	.	2.d	.
4D	.	.	.
2B-	.	.	.
.	.	4e	.
2.A	-ctum	2f	.
.	.	2e	-ctum
4G	.	.	.
=16	=16	=16	=16
4F	.	4d	tu-
4E	.	4c	.
2F	.	[2c	.
1D	tu-	4c]	.
.	.	8B-L	.
.	.	8AJ	.
.	.	2B-	.
=17	=17	=17	=17
1C	-um,	0c	-um,
2r	.	.	.
2E	et	.	.
=18	=18	=18	=18
2G	vi-	2r	.
1A	-ctri-	2c	et
.	.	2e	vi-
2D	-cem	[2f	-ctri-
=19	=19	=19	=19
2.d	ma-	2f]	.
.	.	2B-	-cem
4c	.	.	.
4B-	.	2.f	ma-
4A	.	.	.
[2B-	.	.	.
.	.	4e	.
=20	=20	=20	=20
4B-]	.	4d	.
4A	.	4c	.
4G	.	2d	.
4F	.	.	.
2G	.	2B-	-num
2A	-num	[2f	tu-
=21	=21	=21	=21
1B-	tu-	2f]	.
.	.	2d	-am
[1A	-am	2r	.
.	.	2f	lau-
=22	=22	=22	=22
1A]	.	2e	-da-
.	.	[2c	-ve-
1F	lau-	2c]	.
.	.	4B-	.
.	.	4A	.
=23	=23	=23	=23
2E	-da-	2c	.
[2G	-ve-	2B-	-runt
2G]	.	2.d	pa-
4F	.	.	.
4E	.	4c	.
=24	=24	=24	=24
2G	.	4B-	.
.	.	4G	.
2F	-runt	4A	.
.	.	4B-	.
2A	pa-	2c	.
2G	-ri-	2B-	-ri-
=25	=25	=25	=25
1A	-ter,	0A	-ter,
2r	.	.	.
[2F	Do-	.	.
=26	=26	=26	=26
2F]	.	1.c	Do-
2F	-mi-	.	.
1F	-ne	.	.
.	.	2c	-mi-
=27	=27	=27	=27
2r	.	0c	-ne
[2A	De-	.	.
4A]	.	.	.
4G	.	.	.
4F	.	.	.
4E	.	.	.
=28	=28	=28	=28
1D	.	2r	.
.	.	[2f	De-
1BB-	-us,	4f]	.
.	.	4e	.
.	.	4d	.
.	.	4c	.
=29	=29	=29	=29
2r	.	1B-	.
[2d	De-	.	.
4d]	.	1G	-us,
4c	.	.	.
4B-	.	.	.
4A	.	.	.
=30	=30	=30	=30
4G	.	2r	.
4F	.	.	.
4E-X	.	[2B-	De-
4D	.	.	.
2E-	.	4B-]	.
.	.	4c	.
[2BB-	-us	4d	.
.	.	4e	.
=31	=31	=31	=31
4BB-]	.	2.f	.
4C	.	.	.
4D	.	.	.
4Eni	.	8eL	.
.	.	8dJ	.
4F	.	2.c	.
4G	.	.	.
4A	.	.	.
4B-	.	4d	.
=32	=32	=32	=32
4c	.	2e	.
4A	.	.	.
2d	.	[2f	-us
2.B-	no-	4f]	.
.	.	4e	.
.	.	4d	.
4A	.	4c	.
=33	=33	=33	=33
4G	.	4B-	.
4F	.	4c	.
[2F	.	2A	.
4F]	.	1G	no-
8EL	.	.	.
8DJ	.	.	.
2E	.	.	.
=34	=34	=34	=34
0F	-ster.	0F	-ster.
==	==	==	==
*-	*-	*-	*-
!!!system-decoration: s1,s2
!!!RDF**kern: i = editorial accidental
